X: 43428
T: Y Gwr A'i Farch
R: three-two
M: 3/2
K: Dmajor
A2 D2 D2 A2 BAGF|A2 D2 D2 F2 A2 d2|A2 D2 D2 A2 BAGF|G2 E2 E2 F2 G2 B2:|
D2 d2 d2 A2 FG A2|D2 d2 d2 A2 F2 A2|dcde fedc dcBA|B2 e2 e2 E2 G2 B2:|
A4 BAGF BAGF|A4 BAGF A2 d2|A4 BAGF BAGF|G2 E2 E2 F2 G2 B2:|

